svg/300/outlined/expand_circle_up.svg

<svg xmlns="http://www.w3.org/2000/svg" width="48" height="48" viewBox="0 -960 960 960"><path d="M351.923-405.539 480-533.616l128.077 128.077 32.614-31.615L480-597.845 319.309-437.154l32.614 31.615Zm128.144 305.538q-78.836 0-148.204-29.92-69.369-29.92-120.682-81.21-51.314-51.291-81.247-120.629-29.933-69.337-29.933-148.173t29.92-147.704q29.92-68.869 81.21-120.682 51.291-51.814 120.629-81.747 69.337-29.933 148.173-29.933t147.704 29.92q68.869 29.92 120.682 81.71 51.814 51.791 81.747 120.629 29.933 68.837 29.933 147.673t-29.92 148.204q-29.92 69.369-81.71 120.682-51.791 51.314-120.629 81.247-68.837 29.933-147.673 29.933ZM480-145.385q139.077 0 236.846-97.461Q814.615-340.308 814.615-480q0-139.077-97.769-236.846T480-814.615q-139.692 0-237.154 97.769Q145.385-619.077 145.385-480q0 139.692 97.461 237.154Q340.308-145.385 480-145.385ZM480-480Z"/></svg>

<svg xmlns="http://www.w3.org/2000/svg" width="48" height="48" viewBox="0 -960 960 960"><path d="M351.92-405.54 480-533.62l128.08 128.08 32.61-31.61L480-597.85l-160.69 160.7 32.61 31.61ZM480.07-100q-78.84 0-148.21-29.92t-120.68-81.21q-51.31-51.29-81.25-120.63Q100-401.1 100-479.93q0-78.84 29.92-147.71t81.21-120.68q51.29-51.81 120.63-81.75Q401.1-860 479.93-860q78.84 0 147.71 29.92t120.68 81.71q51.81 51.79 81.75 120.63Q860-558.9 860-480.07q0 78.84-29.92 148.21t-81.71 120.68q-51.79 51.31-120.63 81.25Q558.9-100 480.07-100Zm-.07-45.39q139.08 0 236.85-97.46 97.76-97.46 97.76-237.15 0-139.08-97.76-236.85-97.77-97.76-236.85-97.76-139.69 0-237.15 97.76-97.46 97.77-97.46 236.85 0 139.69 97.46 237.15 97.46 97.46 237.15 97.46ZM480-480Z"/></svg>
